markup/src/img/grid-img-07.svg

<svg width="96" height="96" viewBox="0 0 96 96" fill="none" xmlns="http://www.w3.org/2000/svg">
<path d="M39.3896 39.7855V34.1639C39.3896 32.6912 38.8044 31.2786 37.763 30.2372L35.055 27.5292M56.6104 39.7855V34.1639C56.6104 32.6912 57.1956 31.2786 58.237 30.2372L60.945 27.5292M48 39.9893V25.7864M13.2194 25.1475C14.6575 25.2358 16.0177 25.612 17.2433 26.2191M13.2194 25.1475L13.2196 25.1499C13.0011 25.137 12.7827 25.1277 12.5624 25.1277C6.72958 25.1277 2 29.8555 2 35.6883C2 41.523 6.72958 46.2507 12.5624 46.2507H21.407M13.2194 25.1475C13.2194 25.1401 13.2196 25.1351 13.2196 25.1277C13.2196 22.0993 14.1007 19.2764 15.6204 16.9014M83.965 25.1274C83.965 27.2758 83.3236 29.2744 82.2216 30.9421M83.965 25.1274C83.965 19.2945 79.2356 14.5653 73.4027 14.5653C72.5734 14.5653 71.7682 14.6634 70.9944 14.8448C69.3284 11.3259 65.7484 8.89352 61.5982 8.89352C60.134 8.89352 58.742 9.1971 57.4795 9.74318M83.965 25.1274C83.965 25.1311 83.9652 25.137 83.9652 25.1407C89.5536 25.4146 94 30.0332 94 35.6883C94 41.523 89.2704 46.2507 83.4376 46.2507H74.556M29.0715 15.0694C29.3331 13.2632 29.9106 11.5593 30.7462 10.0155M30.7462 10.0155C30.0132 9.90811 29.2612 9.84869 28.4967 9.84869C25.4332 9.84869 22.5806 10.7502 20.189 12.307M30.7462 10.0155C33.3304 5.24332 38.3816 2 44.1904 2C49.8881 2 54.8528 5.12097 57.4795 9.74318M57.4795 9.74318L58.3492 11.7877C59.0885 13.5246 59.4782 15.3903 59.4956 17.2779M13.2368 88.3567V59.8371H16.2963L10.5791 51.8908L4.862 59.8371H7.92169V88.3567M82.7632 51.8908V80.4105H79.7037L85.4209 88.3567L91.138 80.4105H88.0783V51.8908M33.1597 40.2827H71.298C72.8733 40.2827 74.1506 41.56 74.1506 43.1353V51.9854C74.1506 53.5607 72.8733 54.838 71.298 54.838H24.702C23.1267 54.838 21.8494 53.5607 21.8494 51.9854V43.1353C21.8494 41.56 23.1267 40.2827 24.702 40.2827H26.6808M21.8494 89.9609V91.1474C21.8494 92.7227 23.1267 94 24.702 94H71.298C72.8733 94 74.1506 92.7227 74.1506 91.1474V82.2955C74.1506 80.7202 72.8733 79.4429 71.298 79.4429H24.702C23.1267 79.4429 21.8494 80.7202 21.8494 82.2955V83.482M70.2353 55.1667V59.5379M25.7647 59.5379V55.2889M70.2353 74.8834V79.1327M25.7647 79.2854V74.8834M42.8913 47.5606H45.2559M50.0231 47.5606H52.3877M57.1548 47.5606H68.0201M42.8913 86.7216H45.2559M50.0231 86.7216H52.3877M57.1548 86.7216H68.0201M62.0166 59.8637H71.298C72.8733 59.8637 74.1506 61.1391 74.1506 62.7163V71.5664C74.1506 73.1417 72.8733 74.419 71.298 74.419H24.702C23.1267 74.419 21.8494 73.1417 21.8494 71.5664V62.7163C21.8494 61.1391 23.1267 59.8637 24.702 59.8637H55.5377M53.1087 67.1412H50.7441M45.9769 67.1412H43.6123M38.8452 67.1412H27.9799M51.7022 21.375C51.7022 23.4197 50.0447 25.0772 48 25.0772C45.9553 25.0772 44.2978 23.4197 44.2978 21.375C44.2978 19.3303 45.9553 17.6728 48 17.6728C50.0447 17.6728 51.7022 19.3303 51.7022 21.375ZM35.6951 25.2816C35.6951 26.8764 34.4023 28.1693 32.8074 28.1693C31.2126 28.1693 29.9197 26.8764 29.9197 25.2816C29.9197 23.6867 31.2126 22.3938 32.8074 22.3938C34.4023 22.3938 35.6951 23.6867 35.6951 25.2816ZM66.0803 25.2816C66.0803 26.8764 64.7874 28.1693 63.1926 28.1693C61.5977 28.1693 60.3049 26.8764 60.3049 25.2816C60.3049 23.6867 61.5977 22.3938 63.1926 22.3938C64.7874 22.3938 66.0803 23.6867 66.0803 25.2816Z" stroke="#40AC6C" stroke-width="3" stroke-miterlimit="10" stroke-linecap="round" stroke-linejoin="round"/>
</svg>

<svg width="96" height="96" fill="none" xmlns="http://www.w3.org/2000/svg"><path d="M39.39 39.785v-5.621a5.554 5.554 0 0 0-1.627-3.927l-2.708-2.708M56.61 39.785v-5.621c0-1.473.586-2.885 1.627-3.927l2.708-2.708M48 39.99V25.786m-34.78-.639c1.438.089 2.798.465 4.023 1.072m-4.024-1.072v.003a11.13 11.13 0 0 0-.657-.022C6.73 25.128 2 29.855 2 35.688c0 5.835 4.73 10.563 10.562 10.563h8.845m-8.188-21.103v-.02c0-3.029.882-5.852 2.401-8.227m68.345 8.226c0 2.149-.641 4.147-1.743 5.815m1.743-5.815c0-5.832-4.73-10.562-10.562-10.562-.83 0-1.635.098-2.409.28a10.39 10.39 0 0 0-9.396-5.951c-1.464 0-2.856.303-4.118.85m26.485 15.383v.014C89.554 25.415 94 30.033 94 35.688c0 5.835-4.73 10.563-10.562 10.563h-8.882M29.072 15.069c.261-1.806.839-3.51 1.674-5.054m0 0a15.519 15.519 0 0 0-2.25-.166c-3.063 0-5.915.901-8.307 2.458m10.557-2.292C33.33 5.243 38.382 2 44.19 2c5.698 0 10.663 3.121 13.29 7.743m0 0l.87 2.045a14.357 14.357 0 0 1 1.146 5.49m-46.26 71.079v-28.52h3.06l-5.717-7.946-5.717 7.946h3.06v28.52M82.763 51.89v28.52h-3.06l5.718 7.946 5.717-7.947h-3.06V51.89M33.16 40.284h38.138a2.853 2.853 0 0 1 2.853 2.852v8.85a2.853 2.853 0 0 1-2.853 2.853H24.702a2.853 2.853 0 0 1-2.853-2.853v-8.85a2.853 2.853 0 0 1 2.853-2.852h1.979M21.849 89.96v1.186A2.853 2.853 0 0 0 24.702 94h46.596a2.853 2.853 0 0 0 2.853-2.853v-8.852a2.853 2.853 0 0 0-2.853-2.852H24.702a2.853 2.853 0 0 0-2.853 2.853v1.186m48.386-28.315v4.37m-44.47 0V55.29m44.47 19.594v4.25m-44.47.152v-4.402M42.89 47.561h2.365m4.767 0h2.365m4.767 0H68.02M42.891 86.72h2.365m4.767 0h2.365m4.767 0H68.02m-6.003-26.857h9.281a2.852 2.852 0 0 1 2.853 2.852v8.85a2.853 2.853 0 0 1-2.853 2.853H24.702a2.853 2.853 0 0 1-2.853-2.853v-8.85a2.852 2.852 0 0 1 2.853-2.852h30.836m-2.43 7.277h-2.364m-4.767 0h-2.365m-4.767 0H27.98m23.722-45.766a3.702 3.702 0 1 1-7.404 0 3.702 3.702 0 0 1 7.404 0zm-16.007 3.907a2.888 2.888 0 1 1-5.775 0 2.888 2.888 0 0 1 5.775 0zm30.385 0a2.888 2.888 0 1 1-5.775 0 2.888 2.888 0 0 1 5.775 0z" stroke="#40AC6C" stroke-width="3" stroke-miterlimit="10" stroke-linecap="round" stroke-linejoin="round"/></svg>
